icons/breezeLight/actions/24/pocket-path.svg

<svg viewBox="0 0 24 24" xmlns="http://www.w3.org/2000/svg"><path d="m20 4v16h-16v-16zm-1 1h-14v14h14z" fill="#4d4d4d"/><path d="m14.054688 7a2.5 2.5 0 0 0 -.054688.5 2.5 2.5 0 0 0 .050781.5h-6.050781v8h8v-5h-5v2h3v1h-4v-4h6.5.5v7h-10v-10z" fill="#da4453"/><path d="m16.5 5a2.5 2.5 0 0 1 2.5 2.5 2.5 2.5 0 0 1 -2.5 2.5 2.5 2.5 0 0 1 -2.5-2.5 2.5 2.5 0 0 1 2.5-2.5zm0 1a1.5 1.5 0 0 0 -1.5 1.5 1.5 1.5 0 0 0 1.5 1.5 1.5 1.5 0 0 0 1.5-1.5 1.5 1.5 0 0 0 -1.5-1.5z" fill="#3daee9"/></svg>

<?xml version="1.0" encoding="UTF-8" standalone="no"?>
<svg
   xmlns:dc="http://purl.org/dc/elements/1.1/"
   xmlns:cc="http://creativecommons.org/ns#"
   xmlns:rdf="http://www.w3.org/1999/02/22-rdf-syntax-ns#"
   xmlns:svg="http://www.w3.org/2000/svg"
   xmlns="http://www.w3.org/2000/svg"
   xmlns:sodipodi="http://sodipodi.sourceforge.net/DTD/sodipodi-0.dtd"
   xmlns:inkscape="http://www.inkscape.org/namespaces/inkscape"
   viewBox="0 0 24 24"
   version="1.1"
   id="svg10"
   sodipodi:docname="stroke-to-path.svg"
   inkscape:version="0.92.4 (5da689c313, 2019-01-14)">
  <metadata
     id="metadata14">
    <rdf:RDF>
      <cc:Work
         rdf:about="">
        <dc:format>image/svg+xml</dc:format>
        <dc:type
           rdf:resource="http://purl.org/dc/dcmitype/StillImage" />
        <dc:title></dc:title>
      </cc:Work>
    </rdf:RDF>
  </metadata>
  <sodipodi:namedview
     pagecolor="#ffffff"
     bordercolor="#666666"
     borderopacity="1"
     objecttolerance="10"
     gridtolerance="10"
     guidetolerance="10"
     inkscape:pageopacity="0"
     inkscape:pageshadow="2"
     inkscape:window-width="1295"
     inkscape:window-height="1015"
     id="namedview12"
     showgrid="true"
     inkscape:zoom="19.666667"
     inkscape:cx="10.424238"
     inkscape:cy="6.7811462"
     inkscape:window-x="1916"
     inkscape:window-y="508"
     inkscape:window-maximized="0"
     inkscape:current-layer="svg10">
    <inkscape:grid
       type="xygrid"
       id="grid821"
       empspacing="2"
       spacingx="0.5"
       spacingy="0.5" />
  </sodipodi:namedview>
  <defs
     id="defs3051">
    <style
       type="text/css"
       id="current-color-scheme">
      .ColorScheme-Text {
        color:#4d4d4d;
      }
      .ColorScheme-Highlight {
        color:#3daee9;
      }
      </style>
  </defs>
  <path
     style="fill:#4d4d4d;fill-opacity:1;stroke:none;stroke-opacity:1"
     d="M 20,4 V 20 H 4 V 4 Z M 19,5 H 5 v 14 h 14 z"
     id="rect823"
     inkscape:connector-curvature="0" />
  <path
     style="color:#000000;font-style:normal;font-variant:normal;font-weight:normal;font-stretch:normal;font-size:medium;line-height:normal;font-family:sans-serif;font-variant-ligatures:normal;font-variant-position:normal;font-variant-caps:normal;font-variant-numeric:normal;font-variant-alternates:normal;font-feature-settings:normal;text-indent:0;text-align:start;text-decoration:none;text-decoration-line:none;text-decoration-style:solid;text-decoration-color:#000000;letter-spacing:normal;word-spacing:normal;text-transform:none;writing-mode:lr-tb;direction:ltr;text-orientation:mixed;dominant-baseline:auto;baseline-shift:baseline;text-anchor:start;white-space:normal;shape-padding:0;clip-rule:nonzero;display:inline;overflow:visible;visibility:visible;opacity:1;isolation:auto;mix-blend-mode:normal;color-interpolation:sRGB;color-interpolation-filters:linearRGB;solid-color:#000000;solid-opacity:1;vector-effect:none;fill:#da4453;fill-opacity:1;fill-rule:nonzero;stroke:none;stroke-width:1px;stroke-linecap:butt;stroke-linejoin:miter;stroke-miterlimit:4;stroke-dasharray:none;stroke-dashoffset:0;stroke-opacity:1;color-rendering:auto;image-rendering:auto;shape-rendering:auto;text-rendering:auto;enable-background:accumulate"
     d="M 14.054688,7 A 2.5,2.5 0 0 0 14,7.5 2.5,2.5 0 0 0 14.050781,8 H 8 v 8 h 8 v -5 h -5 v 2 h 3 v 1 h -4 v -4 h 6.5 0.5 v 7 H 7 V 7 Z"
     id="path830"
     inkscape:connector-curvature="0" />
  <path
     style="fill:#3daee9;fill-opacity:1;stroke:none;stroke-opacity:1"
     d="M 16.5,5 A 2.5,2.5 0 0 1 19,7.5 2.5,2.5 0 0 1 16.5,10 2.5,2.5 0 0 1 14,7.5 2.5,2.5 0 0 1 16.5,5 Z m 0,1 A 1.5,1.5 0 0 0 15,7.5 1.5,1.5 0 0 0 16.5,9 1.5,1.5 0 0 0 18,7.5 1.5,1.5 0 0 0 16.5,6 Z"
     id="path837"
     inkscape:connector-curvature="0" />
</svg>
